Origami/64x64/apps/krename.svg

<svg width="64" height="64" version="1" xmlns="http://www.w3.org/2000/svg">
 <path d="m2 58v2c0 1.662 1.338 3 3 3h36c1.662 0 3-1.338 3-3v-2c0 1.662-1.338 3-3 3h-36c-1.662 0-3-1.338-3-3z" style="opacity:.2"/>
 <path d="m5 20h36c1.662 0 3 1.338 3 3v36c0 1.662-1.338 3-3 3h-36c-1.662 0-3-1.338-3-3v-36c0-1.662 1.338-3 3-3z" style="fill:#f3443f"/>
 <g transform="matrix(.78518 0 0 .82304 23.16 60.211078)" style="opacity:.2">
  <path d="m4.4117-11.192652h-11.758l-1.8555 4.861152h-7.5586l10.188658-29.16h10.188746l10.189395 29.16h-7.5586l-1.8359-4.861152zm-9.8828-6.075039h7.9883l-3.9844-11.388509z"/>
 </g>
 <g transform="matrix(.78518 0 0 .82304 23.16 59.212)" style="fill:#ffffff">
  <path d="m4.4117-11.192652h-11.758l-1.8555 4.861152h-7.5586l10.188658-29.16h10.188746l10.189395 29.16h-7.5586l-1.8359-4.861152zm-9.8828-6.075039h7.9883l-3.9844-11.388509z"/>
 </g>
 <path d="m5 20c-1.662 0-3 1.338-3 3v1c0-1.662 1.338-3 3-3h36c1.662 0 3 1.338 3 3v-1c0-1.662-1.338-3-3-3h-36z" style="fill:#ffffff;opacity:.2"/>
 <path d="m20 40v2c0 1.662 1.338 3 3 3h36c1.662 0 3-1.338 3-3v-2c0 1.662-1.338 3-3 3h-36c-1.662 0-3-1.338-3-3z" style="opacity:.2"/>
 <path d="m23 2h36c1.662 0 3 1.338 3 3v36c0 1.662-1.338 3-3 3h-36c-1.662 0-3-1.338-3-3v-36c0-1.662 1.338-3 3-3z" style="fill:#2297fd"/>
 <path d="m32 13v24h10.398438c3.232983 0 5.642593-0.567165 7.226562-1.703125s2.375-2.860954 2.375-5.175781c0-1.511047-0.367753-2.786673-1.105469-3.826172-0.737715-1.039544-1.779715-1.752875-3.125-2.138672 1.052337-0.396486 1.854908-1.001926 2.408203-1.816406 0.553295-0.82518 0.830078-1.822121 0.830078-2.990235 1e-6 -2.218367-0.758475-3.830544-2.277343-4.83789-1.508036-1.007346-3.950203-1.511719-7.324219-1.511719h-9.40625zm6 4h3.875c1.024932 0 1.800712 0.215953 2.330078 0.648438 0.529366 0.421965 0.794922 1.039336 0.794922 1.851562 0 0.822784-0.265556 1.44525-0.794922 1.867188-0.529383 0.421936-1.305163 0.632812-2.330078 0.632812h-3.875v-5zm0 10h4.078125c1.312743 0 2.294542 0.250592 2.945313 0.751953 0.65077 0.491041 0.976562 1.232312 0.976562 2.224609 0 1.012761-0.330215 1.770214-0.992188 2.271485-0.65077 0.501271-1.628146 0.751953-2.929687 0.751953h-4.078125v-6z" style="opacity:.2"/>
 <path d="m32 12v24h10.398438c3.232983 0 5.642593-0.567165 7.226562-1.703125s2.375-2.860954 2.375-5.175781c0-1.511047-0.367753-2.786673-1.105469-3.826172-0.737715-1.039544-1.779715-1.752875-3.125-2.138672 1.052337-0.396486 1.854908-1.001926 2.408203-1.816406 0.553295-0.82518 0.830078-1.822121 0.830078-2.990235 1e-6 -2.218367-0.758475-3.830544-2.277343-4.83789-1.508036-1.007346-3.950203-1.511719-7.324219-1.511719h-9.40625zm6 4h3.875c1.024932 0 1.800712 0.215953 2.330078 0.648438 0.529366 0.421965 0.794922 1.039336 0.794922 1.851562 0 0.822784-0.265556 1.44525-0.794922 1.867188-0.529383 0.421936-1.305163 0.632812-2.330078 0.632812h-3.875v-5zm0 10h4.078125c1.312743 0 2.294542 0.250592 2.945313 0.751953 0.65077 0.491041 0.976562 1.232312 0.976562 2.224609 0 1.012761-0.330215 1.770214-0.992188 2.271485-0.65077 0.501271-1.628146 0.751953-2.929687 0.751953h-4.078125v-6z" style="fill:#ffffff"/>
 <path d="m23 2c-1.662 0-3 1.338-3 3v1c0-1.662 1.338-3 3-3h36c1.662 0 3 1.338 3 3v-1c0-1.662-1.338-3-3-3h-36z" style="fill:#ffffff;opacity:.2"/>
</svg>

<svg xmlns="http://www.w3.org/2000/svg" width="64" height="64" version="1">
 <path style="opacity:0.2" d="m 2,58 0,2 c 0,1.662 1.338,3 3,3 l 36,0 c 1.662,0 3,-1.338 3,-3 l 0,-2 c 0,1.662 -1.338,3 -3,3 L 5,61 C 3.338,61 2,59.662 2,58 Z"/>
 <path style="fill:#f3443f" d="m 5,20 36,0 c 1.662,0 3,1.338 3,3 l 0,36 c 0,1.662 -1.338,3 -3,3 L 5,62 C 3.338,62 2,60.662 2,59 L 2,23 c 0,-1.662 1.338,-3 3,-3 z"/>
 <g style="opacity:0.2" transform="matrix(0.78518,0,0,0.82304,23.16,60.211078)">
  <path d="m 4.4117,-11.192652 -11.758,0 -1.8555,4.861152 -7.5586,0 10.1886585,-29.16 10.1887465,0 10.189395,29.16 -7.5586,0 -1.8359,-4.861152 z m -9.8828,-6.075039 7.9883,0 -3.9844,-11.388509 z"/>
 </g>
 <g style="fill:#ffffff" transform="matrix(0.78518,0,0,0.82304,23.16,59.212)">
  <path d="m 4.4117,-11.192652 -11.758,0 -1.8555,4.861152 -7.5586,0 10.1886585,-29.16 10.1887465,0 10.189395,29.16 -7.5586,0 -1.8359,-4.861152 z m -9.8828,-6.075039 7.9883,0 -3.9844,-11.388509 z"/>
 </g>
 <path style="opacity:0.2;fill:#ffffff" d="M 5 20 C 3.338 20 2 21.338 2 23 L 2 24 C 2 22.338 3.338 21 5 21 L 41 21 C 42.662 21 44 22.338 44 24 L 44 23 C 44 21.338 42.662 20 41 20 L 5 20 z"/>
 <path style="opacity:0.2" d="m 20,40 0,2 c 0,1.662 1.338,3 3,3 l 36,0 c 1.662,0 3,-1.338 3,-3 l 0,-2 c 0,1.662 -1.338,3 -3,3 l -36,0 c -1.662,0 -3,-1.338 -3,-3 z"/>
 <path style="fill:#2297fd" d="m 23,2 36,0 c 1.662,0 3,1.338 3,3 l 0,36 c 0,1.662 -1.338,3 -3,3 l -36,0 c -1.662,0 -3,-1.338 -3,-3 L 20,5 c 0,-1.662 1.338,-3 3,-3 z"/>
 <path style="opacity:0.2" d="m 32,13 0,24 10.398438,0 C 45.631421,37 48.041031,36.432835 49.625,35.296875 51.208969,34.160915 52,32.435921 52,30.121094 c 0,-1.511047 -0.367753,-2.786673 -1.105469,-3.826172 -0.737715,-1.039544 -1.779715,-1.752875 -3.125,-2.138672 1.052337,-0.396486 1.854908,-1.001926 2.408203,-1.816406 0.553295,-0.82518 0.830078,-1.822121 0.830078,-2.990235 10e-7,-2.218367 -0.758475,-3.830544 -2.277343,-4.83789 C 47.222433,13.504373 44.780266,13 41.40625,13 L 32,13 Z m 6,4 3.875,0 c 1.024932,0 1.800712,0.215953 2.330078,0.648438 C 44.734444,18.070403 45,18.687774 45,19.5 45,20.322784 44.734444,20.94525 44.205078,21.367188 43.675695,21.789124 42.899915,22 41.875,22 L 38,22 38,17 Z m 0,10 4.078125,0 c 1.312743,0 2.294542,0.250592 2.945313,0.751953 C 45.674208,28.242994 46,28.984265 46,29.976562 46,30.989323 45.669785,31.746776 45.007812,32.248047 44.357042,32.749318 43.379666,33 42.078125,33 L 38,33 38,27 Z"/>
 <path style="fill:#ffffff" d="M 32 12 L 32 36 L 42.398438 36 C 45.631421 36 48.041031 35.432835 49.625 34.296875 C 51.208969 33.160915 52 31.435921 52 29.121094 C 52 27.610047 51.632247 26.334421 50.894531 25.294922 C 50.156816 24.255378 49.114816 23.542047 47.769531 23.15625 C 48.821868 22.759764 49.624439 22.154324 50.177734 21.339844 C 50.731029 20.514664 51.007812 19.517723 51.007812 18.349609 C 51.007813 16.131242 50.249337 14.519065 48.730469 13.511719 C 47.222433 12.504373 44.780266 12 41.40625 12 L 32 12 z M 38 16 L 41.875 16 C 42.899932 16 43.675712 16.215953 44.205078 16.648438 C 44.734444 17.070403 45 17.687774 45 18.5 C 45 19.322784 44.734444 19.94525 44.205078 20.367188 C 43.675695 20.789124 42.899915 21 41.875 21 L 38 21 L 38 16 z M 38 26 L 42.078125 26 C 43.390868 26 44.372667 26.250592 45.023438 26.751953 C 45.674208 27.242994 46 27.984265 46 28.976562 C 46 29.989323 45.669785 30.746776 45.007812 31.248047 C 44.357042 31.749318 43.379666 32 42.078125 32 L 38 32 L 38 26 z"/>
 <path style="opacity:0.2;fill:#ffffff" d="M 23 2 C 21.338 2 20 3.338 20 5 L 20 6 C 20 4.338 21.338 3 23 3 L 59 3 C 60.662 3 62 4.338 62 6 L 62 5 C 62 3.338 60.662 2 59 2 L 23 2 z"/>
</svg>
